X: 12813
T: Feed The Ducks
R: jig
M: 6/8
K: Amajor
~E2 A ABc|BAF FEF|AeA ~f2 e|ecA BAF|
~E2 A ABc|BAF FEF|A2 f ecA|1 BAF A^GF:|2 BAF A {Bce}||
~f3 fec|efe ~a2 f|ecA EFD|‘CEA cea|
~f3 fec|efe ~a2 f|ecA ~f2 e|ecA cde|
~f3 fec|efe ~a2 f|ecA EFD|‘CEA cAB|
~A3 ~f2 e|~A3 ~f2 e|~A3 ~f2 e|z2 c BAF||

